X: 32797
T: Poor Girl's
R: waltz
M: 3/4
K: Cmajor
(g ^f)g|(a4-(3a_ba)|(g3a/g/) ^fg|ag e(c Ac)|G4 ((3EF^F)|Gc (eg) (ab)|
a2 (g^g a2)|(B4-Bc)|B3 (g ^f)g|(a4-(3a_ba)|(g3a/g/) ^fg|
ag (fd) ((3B_BA)|(G3 F/E/D2)|{^c}(d3 e/d/) (^cd)|^d2{g}a2g2|e6|e3 (g ^f)g|
(a4-(3a_ba)|(g3a/g/) ^fg|ag e(c Ac)|G4 ((3EF^F)|Gc (eg) (ab)|a2g3 e|
g2f2d2|A6|(d4-d_e/d/)|c4((3AcA)|Gc (eg) (ab)|
a2g2e2|{^c}d3 (e/d/ .^c)d|(e^F) ((3G_G=F E=G)|{B}(c4-cd)|(cG)E2F2||
G4-GG|((3GAG .^F) z z A|G6-|G2(E2F2)|G2(A2B2)|c2(a2g2)|
(B4-Bc)|(BF/E/D2)E2|F4FF|((3FGF .E) z z G|(F4-FG)|
(FED2)E2|F2G3A|B2d2c2|Ac Ac (A_A)|G(GE2F2)|
G4G2|((3GAG .^F) z z A|G6-|G2(E2F2)|G2(A2B2)|c2(a2g2)|
f3e (fg)|f3c de|(fd)[d2f2][df]d|[d3f3](e/d/ cd)|[ce][ce].[c2e2][ce][ce]|
[c3e3](d/c/ Bc)|d2(B_BA2)|G2 ((3eGF) ((3dFE)|(c4-cd)|c3||

